X:1
T:Longwood, LM
T:Longwood, LM
T:Sabbath Hymn & Tune Book, 1859
T:Public Domain Courtesy of the Cyber Hymnal™
C:Sabbath Hymn & Tune Book, 1859
Z:Public Domain
Z:Courtesy of the Cyber Hymnal™
%%score ( 1 2 ) ( 3 4 )
L:1/8
Q:1/4=112
M:none
K:A
V:1 treble 
V:2 treble 
V:3 bass 
V:4 bass 
V:1
 [CE]4 | [EA]2 [EA]2 [FB]2 [EG]2 | [CA]3 [EB] [Ec]2 [EA]2 | [EB]3 [Ec] [EB]2 [EA]2 | %4
 [EG]4 [^DF]4 x2 | E4 [EB]4 | [Ec]2 [EB]2 [EA]2 [EB]2 | [Ec]2 [EA]2 [EB]2 E2 | %8
 [EA]3 [EB] [Ec]2 [Fd]2 | ([Ee]3 [Fd] [Ec]2) [DB]2 | [CA]4 |] %11
V:2
 x4 | x8 | x8 | x8 | x10 | E4 x4 | x8 | x6 E2 | x8 | x8 | x4 |] %11
V:3
 [A,,A,]4 | [C,A,]2 [A,,C]2 [D,D]2 [E,B,]2 | [F,A,]3 [E,G,] A,2 [C,A,]2 | %3
 [E,G,]3 [E,A,] [E,G,]2 [A,,C]2 | B,6 z2 A,2 | [E,G,]4 [E,G,]4 | A,2 [E,G,]2 [C,A,]2 [E,G,]2 | %7
 A,2 [C,A,]2 [E,G,]2 [D,B,]2 | [C,A,]3 [E,G,] A,2 [F,A,]2 | A,4 E,2 [E,G,]2 | [A,,A,]4 |] %11
V:4
 x4 | x8 | x4 A,2 x2 | x8 | B,,4 B,,4 x2 | x8 | A,2 x6 | A,2 x6 | x4 A,2 x2 | C,3 D, x4 | x4 |] %11

